!!!!SEGMENT: pl-cz--iii-564--001-008_raszek-waclaw--missa-pastoralis-d-agnus-dei.krn
!!!cenid: 18xx:992
!!!COM: Raszek, Wacław
!!!COM-rismid: pe30020314
!!!CDT: <1848->1848
!!!CNT:
!!!OPR: Missa Pastoralis D
!!!OTL: Agnus Dei
!!!OMV: 008
!!!PDT:
!!!AGN: Sacred; Mass
!!!SMS-siglum: PL-CZ
!!!SMS-shelfmark: III-564
!!!SMS-shelfwork: 001-008 M
!!!SMS-variant:
!!!SMS-altvar:
!!!NIFC-rismid: 300001047
!!!URL-scan: http://repozytorium.nifc.pl/skany/pl-cz-nut--iii-564
!!!ONB-nifc: UWAGA: części Mszy: Kyrie, Gloria, Credo, Et incarnatus, Et resurrexit, Sanctus, Benedictus, Agnus Dei, Dona nobis
!!!AIN: 1 alto 1 bass 5 empty 2 flt 1 organ 1 tenor 2 violn 1 vox
!!!key:
**kern	**fba	**dynam	**kern	**dynam	**kern	**dynam	**kern	**text	**dynam	**kern	**kern	**text	**dynam	**kern	**text	**dynam	**kern	**kern	**dynam	**kern	**dynam	**kern	**kern	**dynam	**kern	**dynam	**kern	**dynam
*part14	*part14	*part14	*part13	*part13	*part12	*part12	*part11	*part11	*part11	*part10	*part9	*part9	*part9	*part8	*part8	*part8	*part7	*part6	*part6	*part5	*part5	*part4	*part3	*part3	*part2	*part2	*part1	*part1
*staff14	*	*	*staff13	*	*staff12	*	*staff11	*staff11	*	*staff10	*staff9	*staff9	*	*staff8	*staff8	*	*staff7	*staff6	*	*staff5	*	*staff4	*staff3	*	*staff2	*	*staff1	*
*Iorgan	*	*	*Ivioln	*	*Ivioln	*	*Ibass	*	*	*Itenor	*Ialto	*	*	*Ivox	*	*	*Iempty	*Iempty	*	*Iempty	*	*Iempty	*Iempty	*	*Iflt	*	*Iflt	*
*I"Organo.	*	*	*I"Violino 2do	*	*I"Violino Primo.	*	*I"Basso	*	*	*I"Tenore	*I"Alto	*	*	*I"Canto	*	*	*I"Clarino.	*I"Cornu 2do	*	*I"Cornu 1mo.	*	*I"Clarinetto vel Oboe 2do	*I"Clarinetto vel Oboe 1mo	*	*I"Flauto 2do	*	*I"Flauto 1mo	*
*I'Org.	*	*	*I'Vn II	*	*I'Vn I	*	*I'B.	*	*	*	*I'A.	*	*	*I'C.	*	*	*	*I'C. II in D	*	*I'C. I in D	*	*I'Cl. II	*I'Cl. I	*	*I'Fl. II	*	*I'Fl. I	*
*clefF4	*	*	*clefG2	*	*clefG2	*	*clefF4	*	*	*	*clefC3	*	*	*clefC1	*	*	*	*clefG2	*	*clefG2	*	*clefG2	*clefG2	*	*clefG2	*	*clefG2	*
*	*	*	*	*	*	*	*	*	*	*	*	*	*	*	*	*	*	*ITrd-1c-2	*	*ITrd-1c-2	*	*	*	*	*	*	*	*
*k[f#c#]	*	*	*k[f#c#]	*	*k[f#c#]	*	*k[f#c#]	*	*	*	*k[f#c#]	*	*	*k[f#c#]	*	*	*	*k[f#c#]	*	*k[f#c#]	*	*k[f#c#]	*k[f#c#]	*	*k[f#c#]	*	*k[f#c#]	*
*D:	*	*	*D:	*	*D:	*	*D:	*	*	*	*D:	*	*	*D:	*	*	*	*D:	*	*D:	*	*D:	*D:	*	*D:	*	*D:	*
*M4/4	*	*	*M4/4	*	*M4/4	*	*M4/4	*	*	*	*M4/4	*	*	*M4/4	*	*	*	*M4/4	*	*M4/4	*	*M4/4	*M4/4	*	*M4/4	*	*M4/4	*
*met(c)	*	*	*met(c)	*	*met(c)	*	*met(c)	*	*	*	*met(c)	*	*	*met(c)	*	*	*	*met(c)	*	*met(c)	*	*met(c)	*met(c)	*	*met(c)	*	*met(c)	*
=1	=1	=1	=1	=1	=1	=1	=1	=1	=1	=1	=1	=1	=1	=1	=1	=1	=1	=1	=1	=1	=1	=1	=1	=1	=1	=1	=1	=1
!	!	!	!	!	!LO:TX:a:t=|	!	!	!	!	!LO:SIC:o:s:v:t=brak partii	!	!	!	!LO:TX:a:t=P:problem=caudy  z prawej strony	!	!	!LO:SIC:o:s:v:t=brak partii	!	!	!	!	!	!	!	!	!	!	!
!LO:TX:a:t=Solo.	!	!	!	!	!	!	!LO:TX:a:t=16	!	!	!	!	!	!	!LO:TX:a:t=Solo	!	!	!	!	!	!LO:TX:a:t=16	!	!	!	!	!LO:TX:a:t=T.	!	!	!
!LO:TX:rj:a:t=ada&colon;	!	!	!	!	!LO:TX:a:t=ada&colon;	!LO:DY:rj:a:t=p.	!LO:TX:a:t=ada&colon;	!	!	!	!LO:TX:a:t=ada&colon;	!	!	!LO:TX:a:t=ada&colon;	!	!	!	!LO:TX:a:t=ada&colon;	!	!LO:TX:a:t=ada&colon;	!	!LO:TX:a:t=ada&colon;	!LO:TX:a:t=ada&colon;	!	!LO:TX:a:t=ada&colon;	!	!LO:TX:a:t=ada&colon;	!
8D\	.	.	16r	.	16r	p	00r	.	.	1ryy	0r	.	.	4.a\	A-	.	1ryy	00r	.	00r	.	00r	00r	.	00r	.	00r	.
!	!	!	!LO:TX:b:t=|	!	!LO:TX:a:t=P:problem=caudy  z prawej strony	!	!	!	!	!	!	!	!	!	!	!	!	!	!	!	!	!	!	!	!	!	!	!
!	!	!	!LO:TX:a:t=adag&colon;	!LO:DY:rj:a:t=p.	!LO:TX:a:t=|	!	!	!	!	!	!	!	!	!	!	!	!	!	!	!	!	!	!	!	!	!	!	!
.	.	.	16A/LL	p	16f#\LL	.	.	.	.	.	.	.	.	.	.	.	.	.	.	.	.	.	.	.	.	.	.	.
8r	.	.	(16d/	.	(16a\	.	.	.	.	.	.	.	.	.	.	.	.	.	.	.	.	.	.	.	.	.	.	.
.	.	.	16f#/JJ)	.	16dd\JJ)	.	.	.	.	.	.	.	.	.	.	.	.	.	.	.	.	.	.	.	.	.	.	.
8D\	.	.	16r	.	16r	.	.	.	.	.	.	.	.	.	.	.	.	.	.	.	.	.	.	.	.	.	.	.
.	.	.	16A/LL	.	16f#\LL	.	.	.	.	.	.	.	.	.	.	.	.	.	.	.	.	.	.	.	.	.	.	.
8r	.	.	16d/	.	16a\	.	.	.	.	.	.	.	.	8dd\	-gnus	.	.	.	.	.	.	.	.	.	.	.	.	.
.	.	.	16f#/JJ	.	16dd\JJ	.	.	.	.	.	.	.	.	.	.	.	.	.	.	.	.	.	.	.	.	.	.	.
.	.	.	.	.	.	.	.	.	.	.	.	.	.	8qee/	.	.	.	.	.	.	.	.	.	.	.	.	.	.
8AA/	7	.	16r	.	16r	.	.	.	.	.	.	.	.	16dd\LL	De-	.	.	.	.	.	.	.	.	.	.	.	.	.
.	.	.	16A/LL	.	16g\LL	.	.	.	.	.	.	.	.	32cc#\L	.	.	.	.	.	.	.	.	.	.	.	.	.	.
.	.	.	.	.	.	.	.	.	.	.	.	.	.	32dd\JJJ	.	.	.	.	.	.	.	.	.	.	.	.	.	.
8r	.	.	16e/	.	16g\	.	.	.	.	.	.	.	.	8cc#\	-i	.	.	.	.	.	.	.	.	.	.	.	.	.
.	.	.	16g/JJ	.	16cc#\JJ	.	.	.	.	.	.	.	.	.	.	.	.	.	.	.	.	.	.	.	.	.	.	.
8A\	.	.	16r	.	16r	.	.	.	.	.	.	.	.	16r	.	.	.	.	.	.	.	.	.	.	.	.	.	.
.	.	.	16A/LL	.	16g\LL	.	.	.	.	.	.	.	.	16ee\LL	Qui	.	.	.	.	.	.	.	.	.	.	.	.	.
8r	.	.	16g/	.	16ee\	.	.	.	.	.	.	.	.	16cc#\	.	.	.	.	.	.	.	.	.	.	.	.	.	.
.	.	.	16e/JJ	.	16g\JJ	.	.	.	.	.	.	.	.	16g\JJ	.	.	.	.	.	.	.	.	.	.	.	.	.	.
=2	=2	=2	=2	=2	=2	=2	=2	=2	=2	=2	=2	=2	=2	=2	=2	=2	=2	=2	=2	=2	=2	=2	=2	=2	=2	=2	=2	=2
8D\	.	.	16r	.	16r	.	.	.	.	1ryy	.	.	.	8g/	tol-	.	1ryy	.	.	.	.	.	.	.	.	.	.	.
.	.	.	16A/LL	.	16f#/LL	.	.	.	.	.	.	.	.	.	.	.	.	.	.	.	.	.	.	.	.	.	.	.
8r	.	.	16d/	.	16a/	.	.	.	.	.	.	.	.	8f#/	-liſ	.	.	.	.	.	.	.	.	.	.	.	.	.
.	.	.	16f#/JJ	.	16dd/JJ	.	.	.	.	.	.	.	.	.	.	.	.	.	.	.	.	.	.	.	.	.	.	.
8F#\	6	.	16r	.	16r	.	.	.	.	.	.	.	.	16r	.	.	.	.	.	.	.	.	.	.	.	.	.	.
.	.	.	16A/LL	.	16f#/LL	.	.	.	.	.	.	.	.	16a\LL	pec-	.	.	.	.	.	.	.	.	.	.	.	.	.
8r	.	.	16d/	.	16a/	.	.	.	.	.	.	.	.	16dd\	.	.	.	.	.	.	.	.	.	.	.	.	.	.
.	.	.	16f#/JJ	.	16dd/JJ	.	.	.	.	.	.	.	.	16cc#\JJ	.	.	.	.	.	.	.	.	.	.	.	.	.	.
8G\	.	.	16r	.	16r	.	.	.	.	.	.	.	.	8.b\L	-ca-	.	.	.	.	.	.	.	.	.	.	.	.	.
.	.	.	16d/LL	.	16b\LL	.	.	.	.	.	.	.	.	.	.	.	.	.	.	.	.	.	.	.	.	.	.	.
8r	.	.	16d/	.	16b\	.	.	.	.	.	.	.	.	.	.	.	.	.	.	.	.	.	.	.	.	.	.	.
.	.	.	16b/JJ	.	16gg\JJ	.	.	.	.	.	.	.	.	16gg\Jk	.	.	.	.	.	.	.	.	.	.	.	.	.	.
8G\	.	.	16b/LL	.	16gg\LL	.	.	.	.	.	.	.	.	16gg\LL	.	.	.	.	.	.	.	.	.	.	.	.	.	.
.	.	.	16a/	.	16ff#\	.	.	.	.	.	.	.	.	16ff#\JJ	.	.	.	.	.	.	.	.	.	.	.	.	.	.
8r	.	.	16g/	.	16ee\	.	.	.	.	.	.	.	.	16ee\LL	-ta	.	.	.	.	.	.	.	.	.	.	.	.	.
.	.	.	16f#/JJ	.	16dd\JJ	.	.	.	.	.	.	.	.	16dd\JJ	.	.	.	.	.	.	.	.	.	.	.	.	.	.
=3	=3	=3	=3	=3	=3	=3	=3	=3	=3	=3	=3	=3	=3	=3	=3	=3	=3	=3	=3	=3	=3	=3	=3	=3	=3	=3	=3	=3
8A\	4	.	8f#/L	.	8dd\L	.	.	.	.	1ryy	2r	.	.	8dd\	mun-	.	1ryy	.	.	.	.	.	.	.	.	.	.	.
8r	#	.	8e/J	.	8cc#\J	.	.	.	.	.	.	.	.	8cc#\	-di	.	.	.	.	.	.	.	.	.	.	.	.	.
!LO:TX:a:t=P:problem=mixed beam	!	!	!	!	!	!	!	!	!	!	!	!	!	!	!	!	!	!	!	!	!	!	!	!	!	!	!	!
16A\LL	.	.	4r	.	4r	.	.	.	.	.	.	.	.	4r	.	.	.	.	.	.	.	.	.	.	.	.	.	.
16AA/	.	.	.	.	.	.	.	.	.	.	.	.	.	.	.	.	.	.	.	.	.	.	.	.	.	.	.	.
16C#/	.	.	.	.	.	.	.	.	.	.	.	.	.	.	.	.	.	.	.	.	.	.	.	.	.	.	.	.
16E/JJ	.	.	.	.	.	.	.	.	.	.	.	.	.	.	.	.	.	.	.	.	.	.	.	.	.	.	.	.
!	!	!	!LO:LB:g=original	!	!	!	!	!	!	!	!	!	!	!	!	!	!	!	!	!	!	!	!	!	!	!	!	!
!	!	!	!	!	!	!	!	!	!	!	!LO:TX:a:t=P:problem=caudy  z prawej strony	!	!	!	!	!	!	!	!	!	!	!	!	!	!	!	!	!
!	!	!	!	!	!	!	!	!	!	!	!LO:TX:rj:a:t=Solo	!	!	!	!	!	!	!	!	!	!	!	!	!	!	!	!	!
8A\	.	.	16r	.	16r	.	.	.	.	.	4.a\	Mi-	.	4.cc#\	mi-	.	.	.	.	.	.	.	.	.	.	.	.	.
.	.	.	16c#/LL	.	16e/LL	.	.	.	.	.	.	.	.	.	.	.	.	.	.	.	.	.	.	.	.	.	.	.
8r	.	.	16e/	.	16a/	.	.	.	.	.	.	.	.	.	.	.	.	.	.	.	.	.	.	.	.	.	.	.
.	.	.	16a/JJ	.	16cc#/JJ	.	.	.	.	.	.	.	.	.	.	.	.	.	.	.	.	.	.	.	.	.	.	.
8A\	.	.	16r	.	16r	.	.	.	.	.	.	.	.	.	.	.	.	.	.	.	.	.	.	.	.	.	.	.
.	.	.	16c#/LL	.	16e/LL	.	.	.	.	.	.	.	.	.	.	.	.	.	.	.	.	.	.	.	.	.	.	.
8r	.	.	16e/	.	16a/	.	.	.	.	.	8a\	-se-	.	8cc#\	-ſe-	.	.	.	.	.	.	.	.	.	.	.	.	.
.	.	.	16a/JJ	.	16cc#/JJ	.	.	.	.	.	.	.	.	.	.	.	.	.	.	.	.	.	.	.	.	.	.	.
!	!	!	!	!	!	!	!	!	!	!	!	!	!	!LO:LB:g=original	!	!	!	!	!	!	!	!	!	!	!	!	!	!
=4	=4	=4	=4	=4	=4	=4	=4	=4	=4	=4	=4	=4	=4	=4	=4	=4	=4	=4	=4	=4	=4	=4	=4	=4	=4	=4	=4	=4
8G#X\	6 5	.	16r	.	16r	.	.	.	.	1ryy	16a\LL	-re-	.	8dd\	-re-	.	1ryy	.	.	.	.	.	.	.	.	.	.	.
.	.	.	16B/LL	.	16e/LL	.	.	.	.	.	16b\JJ	.	.	.	.	.	.	.	.	.	.	.	.	.	.	.	.	.
8r	.	.	16e/	.	16b/	.	.	.	.	.	8b\	-re	.	8dd\	-re	.	.	.	.	.	.	.	.	.	.	.	.	.
.	.	.	16b/JJ	.	16dd/JJ	.	.	.	.	.	.	.	.	.	.	.	.	.	.	.	.	.	.	.	.	.	.	.
!LO:LB:g=original	!	!	!	!	!LO:LB:g=original	!	!	!	!	!	!	!	!	!	!	!	!	!	!	!	!	!	!	!	!	!	!	!
8G#X\	_	.	16r	.	16r	.	.	.	.	.	4r	.	.	4r	.	.	.	.	.	.	.	.	.	.	.	.	.	.
.	.	.	16B/LL	.	16e/LL	.	.	.	.	.	.	.	.	.	.	.	.	.	.	.	.	.	.	.	.	.	.	.
8r	.	.	16e/	.	16b/	.	.	.	.	.	.	.	.	.	.	.	.	.	.	.	.	.	.	.	.	.	.	.
.	.	.	16b/JJ	.	16dd/JJ	.	.	.	.	.	.	.	.	.	.	.	.	.	.	.	.	.	.	.	.	.	.	.
*	*	*	*	*	*	*	*	*	*	*	*	*ij	*	*	*	*	*	*	*	*	*	*	*	*	*	*	*	*
8G#\	.	.	16r	.	16r	.	.	.	.	.	4.b\	Mi-	.	4.dd\	mi-	.	.	.	.	.	.	.	.	.	.	.	.	.
.	.	.	16B/LL	.	16e/LL	.	.	.	.	.	.	.	.	.	.	.	.	.	.	.	.	.	.	.	.	.	.	.
8r	.	.	16e/	.	16b/	.	.	.	.	.	.	.	.	.	.	.	.	.	.	.	.	.	.	.	.	.	.	.
.	.	.	16b/JJ	.	16dd/JJ	.	.	.	.	.	.	.	.	.	.	.	.	.	.	.	.	.	.	.	.	.	.	.
8G#\	.	.	16r	.	16r	.	.	.	.	.	.	.	.	.	.	.	.	.	.	.	.	.	.	.	.	.	.	.
.	.	.	16B/LL	.	16e/LL	.	.	.	.	.	.	.	.	.	.	.	.	.	.	.	.	.	.	.	.	.	.	.
8r	.	.	16e/	.	16b/	.	.	.	.	.	16dd\LL	-se-	.	16ff#\LL	-ſe-	.	.	.	.	.	.	.	.	.	.	.	.	.
.	x	.	16b/JJ	.	16dd/JJ	.	.	.	.	.	16b\JJ	.	.	16dd\JJ	.	.	.	.	.	.	.	.	.	.	.	.	.	.
=5	=5	=5	=5	=5	=5	=5	=5	=5	=5	=5	=5	=5	=5	=5	=5	=5	=5	=5	=5	=5	=5	=5	=5	=5	=5	=5	=5	=5
8A\	.	.	16r	.	16r	.	00r	.	.	1ryy	16b\LL	-re-	.	8cc#\	-re-	.	1ryy	00r	.	00r	.	00r	00r	.	00r	.	00r	.
.	.	.	16c#/LL	.	16e/LL	.	.	.	.	.	16a\JJ	.	.	.	.	.	.	.	.	.	.	.	.	.	.	.	.	.
*	*	*	*	*	*	*	*	*	*	*	*	*Xij	*	*	*	*	*	*	*	*	*	*	*	*	*	*	*	*
8r	.	.	16e/	.	16a/	.	.	.	.	.	8a\	-re	.	8cc#\	-re	.	.	.	.	.	.	.	.	.	.	.	.	.
.	.	.	16a/JJ	.	16cc#/JJ	.	.	.	.	.	.	.	.	.	.	.	.	.	.	.	.	.	.	.	.	.	.	.
8AA/	.	.	16r	.	16r	.	.	.	.	.	4r	.	.	4r	.	.	.	.	.	.	.	.	.	.	.	.	.	.
.	.	.	16c#/LL	.	16e/LL	.	.	.	.	.	.	.	.	.	.	.	.	.	.	.	.	.	.	.	.	.	.	.
8r	.	.	16e/	.	16a/	.	.	.	.	.	.	.	.	.	.	.	.	.	.	.	.	.	.	.	.	.	.	.
.	.	.	16a/JJ	.	16cc#/JJ	.	.	.	.	.	.	.	.	.	.	.	.	.	.	.	.	.	.	.	.	.	.	.
8A\	.	.	16r	.	16r	.	.	.	.	.	4.cc#\	mi-	.	4.ee\	mi-	.	.	.	.	.	.	.	.	.	.	.	.	.
.	.	.	16e/LL	.	16a\LL	.	.	.	.	.	.	.	.	.	.	.	.	.	.	.	.	.	.	.	.	.	.	.
8r	.	.	16a/	.	16cc#\	.	.	.	.	.	.	.	.	.	.	.	.	.	.	.	.	.	.	.	.	.	.	.
.	.	.	16cc#/JJ	.	16ee\JJ	.	.	.	.	.	.	.	.	.	.	.	.	.	.	.	.	.	.	.	.	.	.	.
8A\	.	.	16r	.	16r	.	.	.	.	.	.	.	.	.	.	.	.	.	.	.	.	.	.	.	.	.	.	.
.	.	.	16e/LL	.	16a\LL	.	.	.	.	.	.	.	.	.	.	.	.	.	.	.	.	.	.	.	.	.	.	.
8r	.	.	16a/	.	16cc#\	.	.	.	.	.	8cc#\	-ſe-	.	8ee\	-ſe-	.	.	.	.	.	.	.	.	.	.	.	.	.
.	.	.	16cc#/JJ	.	16ee\JJ	.	.	.	.	.	.	.	.	.	.	.	.	.	.	.	.	.	.	.	.	.	.	.
=6	=6	=6	=6	=6	=6	=6	=6	=6	=6	=6	=6	=6	=6	=6	=6	=6	=6	=6	=6	=6	=6	=6	=6	=6	=6	=6	=6	=6
8d\	.	.	16r	.	16r	.	.	.	.	1ryy	4.dd\	-re-	.	4.ff#\	-re-	.	1ryy	.	.	.	.	.	.	.	.	.	.	.
.	.	.	16a/LL	.	16a\LL	.	.	.	.	.	.	.	.	.	.	.	.	.	.	.	.	.	.	.	.	.	.	.
8r	.	.	16f#/	.	16dd\	.	.	.	.	.	.	.	.	.	.	.	.	.	.	.	.	.	.	.	.	.	.	.
.	.	.	16dd/JJ	.	16ff#\JJ	.	.	.	.	.	.	.	.	.	.	.	.	.	.	.	.	.	.	.	.	.	.	.
8D\	.	.	16r	.	16r	.	.	.	.	.	.	.	.	.	.	.	.	.	.	.	.	.	.	.	.	.	.	.
!	!	!	!LO:TX:a:t=P:problem=mixed beam	!	!	!	!	!	!	!	!	!	!	!	!	!	!	!	!	!	!	!	!	!	!	!	!	!
.	.	.	16f#/LL	.	16a\LL	.	.	.	.	.	.	.	.	.	.	.	.	.	.	.	.	.	.	.	.	.	.	.
8r	.	.	16dd\	.	16ff#\	.	.	.	.	.	8b\	-re	.	8dd\	-re	.	.	.	.	.	.	.	.	.	.	.	.	.
.	.	.	16b\JJ	.	16dd\JJ	.	.	.	.	.	.	.	.	.	.	.	.	.	.	.	.	.	.	.	.	.	.	.
!	!	!	!	!	!	!	!	!	!	!	!LO:LB:g=original	!	!	!	!	!	!	!	!	!	!	!	!	!	!	!	!	!
8E\	6 4	.	16r	.	16r	.	.	.	.	.	(4a\	no-	.	4cc#\	no-	.	.	.	.	.	.	.	.	.	.	.	.	.
.	.	.	16c#/LL	.	16e/LL	.	.	.	.	.	.	.	.	.	.	.	.	.	.	.	.	.	.	.	.	.	.	.
8r	.	.	16e/	.	16a/	.	.	.	.	.	.	.	.	.	.	.	.	.	.	.	.	.	.	.	.	.	.	.
.	.	.	16a/JJ	.	16cc#/JJ	.	.	.	.	.	.	.	.	.	.	.	.	.	.	.	.	.	.	.	.	.	.	.
8E\	+	.	16r	.	16r	.	.	.	.	.	4g#X\)	.	.	4b\	.	.	.	.	.	.	.	.	.	.	.	.	.	.
!	!	!	!LO:LB:g=original	!	!	!	!	!	!	!	!	!	!	!	!	!	!	!	!	!	!	!	!	!	!	!	!	!
.	.	.	16B/LL	.	16d/LL	.	.	.	.	.	.	.	.	.	.	.	.	.	.	.	.	.	.	.	.	.	.	.
8r	.	.	16e/	.	16g#X/	.	.	.	.	.	.	.	.	.	.	.	.	.	.	.	.	.	.	.	.	.	.	.
.	.	.	16g#X/JJ	.	16b/JJ	.	.	.	.	.	.	.	.	.	.	.	.	.	.	.	.	.	.	.	.	.	.	.
=7	=7	=7	=7	=7	=7	=7	=7	=7	=7	=7	=7	=7	=7	=7	=7	=7	=7	=7	=7	=7	=7	=7	=7	=7	=7	=7	=7	=7
4AA/	.	.	16r	.	16r	.	.	.	.	1ryy	4a\	-bis	.	4a\	-biſ	.	1ryy	.	.	.	.	.	.	.	.	.	.	.
.	.	.	16c#/LL	.	16a/LL	.	.	.	.	.	.	.	.	.	.	.	.	.	.	.	.	.	.	.	.	.	.	.
.	.	.	16c#/	.	16a/	.	.	.	.	.	.	.	.	.	.	.	.	.	.	.	.	.	.	.	.	.	.	.
.	.	.	16c#/JJ	.	16a/JJ	.	.	.	.	.	.	.	.	.	.	.	.	.	.	.	.	.	.	.	.	.	.	.
4r	.	.	16c#/LL	.	16a/LL	.	.	.	.	.	4r	.	.	4r	.	.	.	.	.	.	.	.	.	.	.	.	.	.
.	.	.	16d/	.	16b/	.	.	.	.	.	.	.	.	.	.	.	.	.	.	.	.	.	.	.	.	.	.	.
.	.	.	16d/	.	16b/	.	.	.	.	.	.	.	.	.	.	.	.	.	.	.	.	.	.	.	.	.	.	.
.	.	.	16e/JJ	.	16cc#/JJ	.	.	.	.	.	.	.	.	.	.	.	.	.	.	.	.	.	.	.	.	.	.	.
4D\	.	.	16r	.	16r	.	.	.	.	.	2r	.	.	2r	.	.	.	.	.	.	.	.	.	.	.	.	.	.
.	.	.	16f#/LL	.	16dd\LL	.	.	.	.	.	.	.	.	.	.	.	.	.	.	.	.	.	.	.	.	.	.	.
.	.	.	16f#/	.	16dd\	.	.	.	.	.	.	.	.	.	.	.	.	.	.	.	.	.	.	.	.	.	.	.
.	.	.	16f#/JJ	.	16dd\JJ	.	.	.	.	.	.	.	.	.	.	.	.	.	.	.	.	.	.	.	.	.	.	.
!	!	!	!	!	!LO:LB:g=original	!	!	!	!	!	!	!	!	!	!	!	!	!	!	!	!	!	!	!	!	!	!	!
4r	.	.	16f#/LL	.	16dd\LL	.	.	.	.	.	.	.	.	.	.	.	.	.	.	.	.	.	.	.	.	.	.	.
.	.	.	16e/	.	16cc#\	.	.	.	.	.	.	.	.	.	.	.	.	.	.	.	.	.	.	.	.	.	.	.
.	.	.	16d/	.	16b\	.	.	.	.	.	.	.	.	.	.	.	.	.	.	.	.	.	.	.	.	.	.	.
.	.	.	16c#/JJ	.	16a\JJ	.	.	.	.	.	.	.	.	.	.	.	.	.	.	.	.	.	.	.	.	.	.	.
=8	=8	=8	=8	=8	=8	=8	=8	=8	=8	=8	=8	=8	=8	=8	=8	=8	=8	=8	=8	=8	=8	=8	=8	=8	=8	=8	=8	=8
8E\L	7 8	.	8d/L	.	16g#X/LL	.	.	.	.	1ryy	1r	.	.	00r	.	.	1ryy	.	.	.	.	.	.	.	.	.	.	.
.	.	.	.	.	16e/	.	.	.	.	.	.	.	.	.	.	.	.	.	.	.	.	.	.	.	.	.	.	.
8F#\	5	.	8c#/	.	16a/	.	.	.	.	.	.	.	.	.	.	.	.	.	.	.	.	.	.	.	.	.	.	.
.	.	.	.	.	16c#/JJ	.	.	.	.	.	.	.	.	.	.	.	.	.	.	.	.	.	.	.	.	.	.	.
8D\	6	.	8B/	.	16B/LL	.	.	.	.	.	.	.	.	.	.	.	.	.	.	.	.	.	.	.	.	.	.	.
.	.	.	.	.	16a/	.	.	.	.	.	.	.	.	.	.	.	.	.	.	.	.	.	.	.	.	.	.	.
8E\J	_	.	8B/J	.	16B/	.	.	.	.	.	.	.	.	.	.	.	.	.	.	.	.	.	.	.	.	.	.	.
.	.	.	.	.	16g#X/JJ	.	.	.	.	.	.	.	.	.	.	.	.	.	.	.	.	.	.	.	.	.	.	.
!LO:TX:a:t=P:problem=mixed beam	!	!	!	!	!	!	!	!	!	!	!	!	!	!	!	!	!	!	!	!	!	!	!	!	!	!	!	!
8AA/L	x	.	8c#/L	.	8a/L	.	.	.	.	.	.	.	.	.	.	.	.	.	.	.	.	.	.	.	.	.	.	.
8A\J	.	.	8c#/J	.	8a/J	.	.	.	.	.	.	.	.	.	.	.	.	.	.	.	.	.	.	.	.	.	.	.
4AA/	.	.	4c#/	.	4a/	.	.	.	.	.	.	.	.	.	.	.	.	.	.	.	.	.	.	.	.	.	.	.
=9	=9	=9	=9	=9	=9	=9	=9	=9	=9	=9	=9	=9	=9	=9	=9	=9	=9	=9	=9	=9	=9	=9	=9	=9	=9	=9	=9	=9
8AA/	.	.	16r	.	16r	.	00r	.	.	1ryy	4.e\	A-	.	.	.	.	1ryy	00r	.	00r	.	00r	00r	.	00r	.	00r	.
.	.	.	16A/LL	.	16c#/LL	.	.	.	.	.	.	.	.	.	.	.	.	.	.	.	.	.	.	.	.	.	.	.
8r	.	.	16c#/	.	16e/	.	.	.	.	.	.	.	.	.	.	.	.	.	.	.	.	.	.	.	.	.	.	.
.	.	.	16c#/JJ	.	16a/JJ	.	.	.	.	.	.	.	.	.	.	.	.	.	.	.	.	.	.	.	.	.	.	.
8A\	.	.	16r	.	16r	.	.	.	.	.	.	.	.	.	.	.	.	.	.	.	.	.	.	.	.	.	.	.
.	.	.	16A/LL	.	16c#/LL	.	.	.	.	.	.	.	.	.	.	.	.	.	.	.	.	.	.	.	.	.	.	.
8r	.	.	16c#/	.	16e/	.	.	.	.	.	8a\	-gnus	.	.	.	.	.	.	.	.	.	.	.	.	.	.	.	.
.	.	.	16c#/JJ	.	16a/JJ	.	.	.	.	.	.	.	.	.	.	.	.	.	.	.	.	.	.	.	.	.	.	.
.	.	.	.	.	.	.	.	.	.	.	8qb/	.	.	.	.	.	.	.	.	.	.	.	.	.	.	.	.	.
8E\	7 #	.	16r	.	16r	.	.	.	.	.	16a\LL	De-	.	.	.	.	.	.	.	.	.	.	.	.	.	.	.	.
.	.	.	16B/LL	.	16B/LL	.	.	.	.	.	32g#X\L	.	.	.	.	.	.	.	.	.	.	.	.	.	.	.	.	.
.	.	.	.	.	.	.	.	.	.	.	32a\JJJ	.	.	.	.	.	.	.	.	.	.	.	.	.	.	.	.	.
8r	.	.	16d/	.	16d/	.	.	.	.	.	8g#\	-i	.	.	.	.	.	.	.	.	.	.	.	.	.	.	.	.
.	.	.	16B/JJ	.	16g#X/JJ	.	.	.	.	.	.	.	.	.	.	.	.	.	.	.	.	.	.	.	.	.	.	.
8E\	_	.	16r	.	16r	.	.	.	.	.	16r	.	.	.	.	.	.	.	.	.	.	.	.	.	.	.	.	.
.	.	.	16B/LL	.	16e/LL	.	.	.	.	.	16b\LL	qui	.	.	.	.	.	.	.	.	.	.	.	.	.	.	.	.
8r	.	.	16e/	.	16b/	.	.	.	.	.	16g#\	.	.	.	.	.	.	.	.	.	.	.	.	.	.	.	.	.
.	x	.	16b/JJ	.	16dd/JJ	.	.	.	.	.	16d\JJ	.	.	.	.	.	.	.	.	.	.	.	.	.	.	.	.	.
!LO:LB:g=original	!	!	!	!	!	!	!	!	!	!	!	!	!	!	!	!	!	!	!	!	!	!	!	!	!	!	!	!
=10	=10	=10	=10	=10	=10	=10	=10	=10	=10	=10	=10	=10	=10	=10	=10	=10	=10	=10	=10	=10	=10	=10	=10	=10	=10	=10	=10	=10
8AA/	.	.	16r	.	16r	.	.	.	.	1ryy	8d\	tol-	.	.	.	.	1ryy	.	.	.	.	.	.	.	.	.	.	.
.	.	.	16c#/LL	.	16e/LL	.	.	.	.	.	.	.	.	.	.	.	.	.	.	.	.	.	.	.	.	.	.	.
8r	.	.	16e/	.	16a/	.	.	.	.	.	8c#\	-liſ	.	.	.	.	.	.	.	.	.	.	.	.	.	.	.	.
.	.	.	16a/JJ	.	16cc#/JJ	.	.	.	.	.	.	.	.	.	.	.	.	.	.	.	.	.	.	.	.	.	.	.
8A\	.	.	16r	.	16r	.	.	.	.	.	16r	.	.	.	.	.	.	.	.	.	.	.	.	.	.	.	.	.
.	.	.	16e/LL	.	16a\LL	.	.	.	.	.	16e\LL	pec-	.	.	.	.	.	.	.	.	.	.	.	.	.	.	.	.
8r	.	.	16a/	.	16ee\	.	.	.	.	.	16a\	.	.	.	.	.	.	.	.	.	.	.	.	.	.	.	.	.
.	.	.	16cc#/JJ	.	16gg\JJ	.	.	.	.	.	16gn\JJ	.	.	.	.	.	.	.	.	.	.	.	.	.	.	.	.	.
!	!	!	!LO:LB:g=original	!	!	!	!	!	!	!	!	!	!	!	!	!	!	!	!	!	!	!	!	!	!	!	!	!
8D\	.	.	16r	.	16r	.	.	.	.	.	8g\	-ca-	.	.	.	.	.	.	.	.	.	.	.	.	.	.	.	.
.	.	.	16d/LL	.	16a\LL	.	.	.	.	.	.	.	.	.	.	.	.	.	.	.	.	.	.	.	.	.	.	.
8r	.	.	16f#/	.	16dd\	.	.	.	.	.	8f#\	-ta	.	.	.	.	.	.	.	.	.	.	.	.	.	.	.	.
.	.	.	16dd/JJ	.	16ff#\JJ	.	.	.	.	.	.	.	.	.	.	.	.	.	.	.	.	.	.	.	.	.	.	.
8D\	.	.	16r	.	16r	.	.	.	.	.	8r	.	.	.	.	.	.	.	.	.	.	.	.	.	.	.	.	.
.	.	.	16f#/LL	.	16aa\LL	.	.	.	.	.	.	.	.	.	.	.	.	.	.	.	.	.	.	.	.	.	.	.
8r	.	.	16d/	.	16ff#\	.	.	.	.	.	8a\	pec-	.	.	.	.	.	.	.	.	.	.	.	.	.	.	.	.
.	.	.	16a/JJ	.	16dd\JJ	.	.	.	.	.	.	.	.	.	.	.	.	.	.	.	.	.	.	.	.	.	.	.
=11	=11	=11	=11	=11	=11	=11	=11	=11	=11	=11	=11	=11	=11	=11	=11	=11	=11	=11	=11	=11	=11	=11	=11	=11	=11	=11	=11	=11
8G\	7	.	16r	.	16r	.	.	.	.	1ryy	4b\	-ca-	.	.	.	.	1ryy	.	.	.	.	.	.	.	.	.	.	.
.	.	.	16d/LL	.	16b\LL	.	.	.	.	.	.	.	.	.	.	.	.	.	.	.	.	.	.	.	.	.	.	.
8r	.	.	16d/	.	16b\	.	.	.	.	.	.	.	.	.	.	.	.	.	.	.	.	.	.	.	.	.	.	.
.	.	.	16b/JJ	.	16gg\JJ	.	.	.	.	.	.	.	.	.	.	.	.	.	.	.	.	.	.	.	.	.	.	.
8G\	.	.	16b/LL	.	16gg\LL	.	.	.	.	.	16b\LL	.	.	.	.	.	.	.	.	.	.	.	.	.	.	.	.	.
.	.	.	16a/	.	16ff#\	.	.	.	.	.	16a\JJ	.	.	.	.	.	.	.	.	.	.	.	.	.	.	.	.	.
8r	.	.	16g/	.	16ee\	.	.	.	.	.	16g\LL	-ta	.	.	.	.	.	.	.	.	.	.	.	.	.	.	.	.
.	.	.	16f#/JJ	.	16dd\JJ	.	.	.	.	.	16f#\JJ	.	.	.	.	.	.	.	.	.	.	.	.	.	.	.	.	.
!	!	!	!	!	!	!	!	!	!	!	!LO:LB:g=original	!	!	!	!	!	!	!	!	!	!	!	!	!	!	!	!	!
8A\	4	.	8f#/L	.	8dd\L	.	.	.	.	.	8f#\	mun-	.	.	.	.	.	.	.	.	.	.	.	.	.	.	.	.
8r	#	.	8e/J	.	8cc#\J	.	.	.	.	.	8e\	-di	.	.	.	.	.	.	.	.	.	.	.	.	.	.	.	.
16A'\LL	.	.	4r	.	4r	.	.	.	.	.	4r	.	.	.	.	.	.	.	.	.	.	.	.	.	.	.	.	.
16Gn'\	.	.	.	.	.	.	.	.	.	.	.	.	.	.	.	.	.	.	.	.	.	.	.	.	.	.	.	.
16F#'\	.	.	.	.	.	.	.	.	.	.	.	.	.	.	.	.	.	.	.	.	.	.	.	.	.	.	.	.
16E'\JJ	.	.	.	.	.	.	.	.	.	.	.	.	.	.	.	.	.	.	.	.	.	.	.	.	.	.	.	.
!	!	!	!	!	!LO:LB:g=original	!	!	!	!	!	!	!	!	!	!	!	!	!	!	!	!	!	!	!	!	!	!	!
=12	=12	=12	=12	=12	=12	=12	=12	=12	=12	=12	=12	=12	=12	=12	=12	=12	=12	=12	=12	=12	=12	=12	=12	=12	=12	=12	=12	=12
8D\	.	.	16r	.	16r	.	.	.	.	1ryy	4.f#\	mi-	.	4.dd\	mi-	.	1ryy	.	.	.	.	.	.	.	.	.	.	.
.	.	.	16A/LL	.	16f#/LL	.	.	.	.	.	.	.	.	.	.	.	.	.	.	.	.	.	.	.	.	.	.	.
8r	.	.	16A/	.	16f#/	.	.	.	.	.	.	.	.	.	.	.	.	.	.	.	.	.	.	.	.	.	.	.
.	.	.	16f#/JJ	.	16dd/JJ	.	.	.	.	.	.	.	.	.	.	.	.	.	.	.	.	.	.	.	.	.	.	.
8D\	.	.	16r	.	16r	.	.	.	.	.	.	.	.	.	.	.	.	.	.	.	.	.	.	.	.	.	.	.
.	.	.	16A/LL	.	16f#/LL	.	.	.	.	.	.	.	.	.	.	.	.	.	.	.	.	.	.	.	.	.	.	.
8r	.	.	16A/	.	16f#/	.	.	.	.	.	8f#\	-ſe-	.	8dd\	-ſe-	.	.	.	.	.	.	.	.	.	.	.	.	.
.	.	.	16f#/JJ	.	16dd/JJ	.	.	.	.	.	.	.	.	.	.	.	.	.	.	.	.	.	.	.	.	.	.	.
8C#/	5 3	.	16r	.	16r	.	.	.	.	.	16f#\LL	-re-	.	16dd#X\LL	-re-	.	.	.	.	.	.	.	.	.	.	.	.	.
.	.	.	16A/LL	.	16g\LL	.	.	.	.	.	16g\JJ	.	.	16ee\JJ	.	.	.	.	.	.	.	.	.	.	.	.	.	.
8r	.	.	16A/	.	16g\	.	.	.	.	.	8g\	-re	.	8ee\	-re	.	.	.	.	.	.	.	.	.	.	.	.	.
.	.	.	16g/JJ	.	16ee\JJ	.	.	.	.	.	.	.	.	.	.	.	.	.	.	.	.	.	.	.	.	.	.	.
8C#/	.	.	16r	.	16r	.	.	.	.	.	4r	.	.	4r	.	.	.	.	.	.	.	.	.	.	.	.	.	.
.	.	.	16A/LL	.	16g\LL	.	.	.	.	.	.	.	.	.	.	.	.	.	.	.	.	.	.	.	.	.	.	.
8r	.	.	16A/	.	16g\	.	.	.	.	.	.	.	.	.	.	.	.	.	.	.	.	.	.	.	.	.	.	.
.	.	.	16g/JJ	.	16ee\JJ	.	.	.	.	.	.	.	.	.	.	.	.	.	.	.	.	.	.	.	.	.	.	.
!	!	!	!	!	!	!	!	!	!	!	!	!	!	!LO:LB:g=original	!	!	!	!	!	!	!	!	!	!	!	!	!	!
=13	=13	=13	=13	=13	=13	=13	=13	=13	=13	=13	=13	=13	=13	=13	=13	=13	=13	=13	=13	=13	=13	=13	=13	=13	=13	=13	=13	=13
8C#/	.	.	16r	.	16r	.	00r	.	.	1ryy	4.g\	mi-	.	4.ee\	mi-	.	1ryy	00r	.	00r	.	00r	00r	.	00r	.	00r	.
.	.	.	16A/LL	.	16g\LL	.	.	.	.	.	.	.	.	.	.	.	.	.	.	.	.	.	.	.	.	.	.	.
8r	.	.	16A/	.	16g\	.	.	.	.	.	.	.	.	.	.	.	.	.	.	.	.	.	.	.	.	.	.	.
.	.	.	16g/JJ	.	16ee\JJ	.	.	.	.	.	.	.	.	.	.	.	.	.	.	.	.	.	.	.	.	.	.	.
8C#/	.	.	16r	.	16r	.	.	.	.	.	.	.	.	.	.	.	.	.	.	.	.	.	.	.	.	.	.	.
.	.	.	16g/LL	.	16ee\LL	.	.	.	.	.	.	.	.	.	.	.	.	.	.	.	.	.	.	.	.	.	.	.
8r	.	.	16b/	.	16gg\	.	.	.	.	.	16b\LL	-ſe-	.	16gg\LL	-ſe-	.	.	.	.	.	.	.	.	.	.	.	.	.
.	.	.	16g/JJ	.	16ee\JJ	.	.	.	.	.	16g\JJ	.	.	16ee\JJ	.	.	.	.	.	.	.	.	.	.	.	.	.	.
8D\	.	.	16r	.	16r	.	.	.	.	.	16g\LL	-re-	.	16ee\LL	-re-	.	.	.	.	.	.	.	.	.	.	.	.	.
.	.	.	16A/LL	.	16f#/LL	.	.	.	.	.	16f#\JJ	.	.	16dd\JJ	.	.	.	.	.	.	.	.	.	.	.	.	.	.
8r	.	.	16d/	.	16a/	.	.	.	.	.	8f#\	-re	.	8dd\	-re	.	.	.	.	.	.	.	.	.	.	.	.	.
.	.	.	16f#/JJ	.	16dd/JJ	.	.	.	.	.	.	.	.	.	.	.	.	.	.	.	.	.	.	.	.	.	.	.
8D\	.	.	16r	.	16r	.	.	.	.	.	4r	.	.	4r	.	.	.	.	.	.	.	.	.	.	.	.	.	.
.	.	.	16A/LL	.	16f#/LL	.	.	.	.	.	.	.	.	.	.	.	.	.	.	.	.	.	.	.	.	.	.	.
8r	.	.	16d/	.	16a/	.	.	.	.	.	.	.	.	.	.	.	.	.	.	.	.	.	.	.	.	.	.	.
.	.	.	16f#/JJ	.	16dd/JJ	.	.	.	.	.	.	.	.	.	.	.	.	.	.	.	.	.	.	.	.	.	.	.
!	!	!	!LO:LB:g=original	!	!	!	!	!	!	!	!	!	!	!	!	!	!	!	!	!	!	!	!	!	!	!	!	!
=14	=14	=14	=14	=14	=14	=14	=14	=14	=14	=14	=14	=14	=14	=14	=14	=14	=14	=14	=14	=14	=14	=14	=14	=14	=14	=14	=14	=14
8d\	.	.	16r	.	16r	.	.	.	.	1ryy	4.a\	mi-	.	4.ff#\	mi-	.	1ryy	.	.	.	.	.	.	.	.	.	.	.
.	.	.	16a\LL	.	16dd\LL	.	.	.	.	.	.	.	.	.	.	.	.	.	.	.	.	.	.	.	.	.	.	.
8r	.	.	16dd\	.	16ff#\	.	.	.	.	.	.	.	.	.	.	.	.	.	.	.	.	.	.	.	.	.	.	.
.	.	.	16ff#\JJ	.	16aa\JJ	.	.	.	.	.	.	.	.	.	.	.	.	.	.	.	.	.	.	.	.	.	.	.
8D\	.	.	16r	.	16r	.	.	.	.	.	.	.	.	.	.	.	.	.	.	.	.	.	.	.	.	.	.	.
.	.	.	16a\LL	.	16dd\LL	.	.	.	.	.	.	.	.	.	.	.	.	.	.	.	.	.	.	.	.	.	.	.
8r	.	.	16dd\	.	16ff#\	.	.	.	.	.	8a\	-ſe-	.	8ff#\	-ſe-	.	.	.	.	.	.	.	.	.	.	.	.	.
.	.	.	16ff#\JJ	.	16aa\JJ	.	.	.	.	.	.	.	.	.	.	.	.	.	.	.	.	.	.	.	.	.	.	.
8G\	.	.	16r	.	16r	.	.	.	.	.	4.b\	-re-	.	4.gg\	-re-	.	.	.	.	.	.	.	.	.	.	.	.	.
.	.	.	16b\LL	.	16dd\LL	.	.	.	.	.	.	.	.	.	.	.	.	.	.	.	.	.	.	.	.	.	.	.
8r	.	.	16dd\	.	16gg\	.	.	.	.	.	.	.	.	.	.	.	.	.	.	.	.	.	.	.	.	.	.	.
.	.	.	16gg\JJ	.	16bb\JJ	.	.	.	.	.	.	.	.	.	.	.	.	.	.	.	.	.	.	.	.	.	.	.
8G\	.	.	16r	.	16r	.	.	.	.	.	.	.	.	.	.	.	.	.	.	.	.	.	.	.	.	.	.	.
.	.	.	16b\LL	.	16dd\LL	.	.	.	.	.	.	.	.	.	.	.	.	.	.	.	.	.	.	.	.	.	.	.
8r	.	.	16gg\	.	16bb\	.	.	.	.	.	8g\	-re	.	8ee\	-re	.	.	.	.	.	.	.	.	.	.	.	.	.
.	.	.	16ee\JJ	.	16gg\JJ	.	.	.	.	.	.	.	.	.	.	.	.	.	.	.	.	.	.	.	.	.	.	.
!LO:LB:g=original	!	!	!	!	!	!	!	!	!	!	!	!	!	!	!	!	!	!	!	!	!	!	!	!	!	!	!	!
=15	=15	=15	=15	=15	=15	=15	=15	=15	=15	=15	=15	=15	=15	=15	=15	=15	=15	=15	=15	=15	=15	=15	=15	=15	=15	=15	=15	=15
8A\	6 4	.	16r	.	16r	.	.	.	.	1ryy	(4f#\	no-	.	(4dd\	no-	.	1ryy	.	.	.	.	.	.	.	.	.	.	.
.	.	.	16a/LL	.	16ff#\LL	.	.	.	.	.	.	.	.	.	.	.	.	.	.	.	.	.	.	.	.	.	.	.
8r	.	.	16f#/	.	16aa\	.	.	.	.	.	.	.	.	.	.	.	.	.	.	.	.	.	.	.	.	.	.	.
.	.	.	16a/JJ	.	16dd\JJ	.	.	.	.	.	.	.	.	.	.	.	.	.	.	.	.	.	.	.	.	.	.	.
8AA/	5 #	.	16r	.	16r	.	.	.	.	.	4e\)	.	.	4cc#\)	.	.	.	.	.	.	.	.	.	.	.	.	.	.
.	.	.	16g/LL	.	16ee\LL	.	.	.	.	.	.	.	.	.	.	.	.	.	.	.	.	.	.	.	.	.	.	.
8r	.	.	16e/	.	16gg\	.	.	.	.	.	.	.	.	.	.	.	.	.	.	.	.	.	.	.	.	.	.	.
.	.	.	16g/JJ	.	16cc#\JJ	.	.	.	.	.	.	.	.	.	.	.	.	.	.	.	.	.	.	.	.	.	.	.
8D\	.	.	16r	.	16r	.	.	.	.	.	4f#\	-biſ	.	4dd\	-biſ	.	.	.	.	.	.	.	.	.	.	.	.	.
.	.	.	16f#/LL	.	16dd\LL	.	.	.	.	.	.	.	.	.	.	.	.	.	.	.	.	.	.	.	.	.	.	.
8r	.	.	16f#/	.	16dd\	.	.	.	.	.	.	.	.	.	.	.	.	.	.	.	.	.	.	.	.	.	.	.
*	*	*	*	*	*custos:dd	*	*	*	*	*	*	*	*	*	*	*	*	*	*	*	*	*	*	*	*	*	*	*
.	.	.	16f#/JJ	.	16dd\JJ	.	.	.	.	.	.	.	.	.	.	.	.	.	.	.	.	.	.	.	.	.	.	.
!	!	!	!	!	!LO:LB:g=original	!	!	!	!	!	!	!	!	!	!	!	!	!	!	!	!	!	!	!	!	!	!	!
8F#\	6	.	4a/	.	16dd\LL	.	.	.	.	.	4r	.	.	4r	.	.	.	.	.	.	.	.	.	.	.	.	.	.
.	.	.	.	.	16ddd\	.	.	.	.	.	.	.	.	.	.	.	.	.	.	.	.	.	.	.	.	.	.	.
8r	.	.	.	.	16aa\	.	.	.	.	.	.	.	.	.	.	.	.	.	.	.	.	.	.	.	.	.	.	.
.	.	.	.	.	16ff#\JJ	.	.	.	.	.	.	.	.	.	.	.	.	.	.	.	.	.	.	.	.	.	.	.
!	!	!	!	!	!	!	!	!	!	!	!LO:LB:g=original	!	!	!	!	!	!	!	!	!	!	!	!	!	!	!	!	!
=16	=16	=16	=16	=16	=16	=16	=16	=16	=16	=16	=16	=16	=16	=16	=16	=16	=16	=16	=16	=16	=16	=16	=16	=16	=16	=16	=16	=16
8G\	.	.	8B/	.	16r	.	.	.	.	1ryy	1r	.	.	1r	.	.	1ryy	.	.	.	.	.	.	.	.	.	.	.
.	.	.	.	.	16ee\LL	.	.	.	.	.	.	.	.	.	.	.	.	.	.	.	.	.	.	.	.	.	.	.
8r	.	.	8r	.	16ee\	.	.	.	.	.	.	.	.	.	.	.	.	.	.	.	.	.	.	.	.	.	.	.
.	.	.	.	.	16ee\JJ	.	.	.	.	.	.	.	.	.	.	.	.	.	.	.	.	.	.	.	.	.	.	.
8G\	.	.	8B/	.	16ee\LL	.	.	.	.	.	.	.	.	.	.	.	.	.	.	.	.	.	.	.	.	.	.	.
.	.	.	.	.	16bb\	.	.	.	.	.	.	.	.	.	.	.	.	.	.	.	.	.	.	.	.	.	.	.
8r	.	.	8r	.	16gg\	.	.	.	.	.	.	.	.	.	.	.	.	.	.	.	.	.	.	.	.	.	.	.
.	.	.	.	.	16ee\JJ	.	.	.	.	.	.	.	.	.	.	.	.	.	.	.	.	.	.	.	.	.	.	.
!LO:TX:a:t=P:problem=mixed beam	!	!	!	!	!	!	!	!	!	!	!	!	!	!	!	!	!	!	!	!	!	!	!	!	!	!	!	!
8F#\L	.	.	8d/L	.	16aa\LL	.	.	.	.	.	.	.	.	.	.	.	.	.	.	.	.	.	.	.	.	.	.	.
.	.	.	.	.	16dd\	.	.	.	.	.	.	.	.	.	.	.	.	.	.	.	.	.	.	.	.	.	.	.
8B\	6	.	16d/L	.	16gg\	.	.	.	.	.	.	.	.	.	.	.	.	.	.	.	.	.	.	.	.	.	.	.
.	.	.	16g/JJ	.	16ee\JJ	.	.	.	.	.	.	.	.	.	.	.	.	.	.	.	.	.	.	.	.	.	.	.
8A\	4	.	8f#/L	.	8dd\L	.	.	.	.	.	.	.	.	.	.	.	.	.	.	.	.	.	.	.	.	.	.	.
8AA/J	#	.	8e/J	.	8cc#\J	.	.	.	.	.	.	.	.	.	.	.	.	.	.	.	.	.	.	.	.	.	.	.
=17	=17	=17	=17	=17	=17	=17	=17	=17	=17	=17	=17	=17	=17	=17	=17	=17	=17	=17	=17	=17	=17	=17	=17	=17	=17	=17	=17	=17
*2\right	*	*	*	*	*	*	*	*	*	*	*	*	*	*	*	*	*	*2\right	*	*2\right	*	*	*2\right	*	*2\right	*	*2\right	*
*tremolo	*	*	*	*	*	*	*	*	*	*	*	*	*	*	*	*	*	*tremolo	*	*tremolo	*	*	*	*	*	*	*	*
!LO:TX:a:t=Tutti	!	!	!	!LO:DY:a:t=ffor&colon;	!	!LO:DY:rj:a:t=ffor&colon;	!LO:TX:a:t=P:problem=caudy  z prawej strony	!	!	!	!LO:TX:rj:a:t=T.	!	!	!	!	!LO:DY:rj:a:t=ff&colon;	!	!LO:TX:a:t=P:problem=caudy  z prawej strony	!LO:DY:a:t=ffor&colon;	!LO:TX:a:t=P:problem=caudy  z prawej strony	!LO:DY:rj:a:t=ff&colon;	!LO:TX:a:t=P:problem=caudy  z prawej strony	!LO:TX:a:t=P:problem=caudy  z prawej strony	!	!LO:TX:a:t=P:problem=caudy  z prawej strony	!	!LO:TX:a:t=P:problem=caudy  z prawej strony	!
8D\L	.	.	8f#/L	ff	8dd\L	ff	4.D\	A-	.	1ryy	4.a\	A-	.	4.ff#\	A-	ff	1ryy	8dd\L	ff	8ff#\L	ff	2a/	2ff#\	.	2ff#\	.	2aa\	.
8D\	.	.	8a/	.	8ff#\	.	.	.	.	.	.	.	.	.	.	.	.	8dd\	.	8ff#\	.	.	.	.	.	.	.	.
8D\	.	.	8a/	.	8ff#\	.	.	.	.	.	.	.	.	.	.	.	.	8dd\	.	8ff#\	.	.	.	.	.	.	.	.
8D\J	.	.	8a/J	.	8ff#\J	.	8D\	-gnus	.	.	8a\	-gnus	.	8ff#\	-gnuſ	.	.	8dd\J	.	8ff#\J	.	.	.	.	.	.	.	.
*	*	*	*	*	*2\right	*	*	*	*	*	*	*	*	*	*	*	*	*	*	*	*	*	*	*	*	*	*	*
*	*	*	*tremolo	*	*tremolo	*	*	*	*	*	*	*	*	*	*	*	*	*	*	*	*	*	*	*	*	*	*	*
!	!	!LO:DY:rj:a:t=ff.	!	!	!	!	!	!	!	!	!	!	!	!	!	!	!	!	!	!	!	!	!	!	!	!	!	!
8C#/L	6\	ff	8a#X/L	.	8ee\L	.	4C#/	De-	.	.	4a#X\	De-	.	4ee\	De-	.	.	8f#/L	.	8ff#\L	.	2a#X/	2ff#\	.	2ee\	.	2aa#X\	.
8C#/	.	.	8a#X/	.	8ee\	.	.	.	.	.	.	.	.	.	.	.	.	8f#/	.	8ff#\	.	.	.	.	.	.	.	.
8C#/	.	.	8a#X/	.	8ee\	.	8C#/	-i	.	.	8a#\	-i	.	8ee\	-i	.	.	8f#/	.	8ff#\	.	.	.	.	.	.	.	.
8C#/J	.	.	8a#X/J	.	8ee\J	.	8C#/	qui	.	.	8a#\	qui	.	8ee\	qui	.	.	8f#/J	.	8ff#\J	.	.	.	.	.	.	.	.
=18	=18	=18	=18	=18	=18	=18	=18	=18	=18	=18	=18	=18	=18	=18	=18	=18	=18	=18	=18	=18	=18	=18	=18	=18	=18	=18	=18	=18
*	*	*	*	*	*	*	*	*	*	*	*	*	*	*	*	*	*	*	*	*	*	*2\right	*	*	*	*	*	*
8BB/L	.	.	8b/ 8f#/L	.	8dd\L	.	4BB/	tol-	.	1ryy	4b\	tol-	.	4dd\	tol-	.	1ryy	8f#/L	.	8ff#\L	.	2dd\	2ff#\	.	2dd\	.	2bb\	.
8BB/	.	.	8b/ 8f#/	.	8dd\	.	.	.	.	.	.	.	.	.	.	.	.	8f#/	.	8ff#\	.	.	.	.	.	.	.	.
8BB/	.	.	8b/ 8f#/	.	8dd\	.	8B\	-liſ	.	.	8f#\	-liſ	.	8dd\	-liſ	.	.	8f#/	.	8ff#\	.	.	.	.	.	.	.	.
8BB/J	.	.	8b/ 8f#/J	.	8dd\J	.	8B\	pec-	.	.	8f#\	pec-	.	8dd\	pec-	.	.	8f#/J	.	8ff#\J	.	.	.	.	.	.	.	.
8An\L	4 2	.	8b/ 8f#/L	.	8dd#X\L	.	4A\	-ca-	.	.	4f#\	-ca-	.	4dd#X\	-ca-	.	.	8ff#\L	.	8ff#\L	.	2dd#X\	2ff#\	.	2dd#X\	.	2bb\	.
8An\	.	.	8b/ 8f#/	.	8dd#X\	.	.	.	.	.	.	.	.	.	.	.	.	8ff#\	.	8ff#\	.	.	.	.	.	.	.	.
8An\	.	.	8b/ 8f#/	.	8dd#X\	.	4A\	-ta	.	.	4f#\	-ta	.	4dd#\	-ta	.	.	8ff#\	.	8ff#\	.	.	.	.	.	.	.	.
8An\J	.	.	8b/ 8f#/J	.	8dd#X\J	.	.	.	.	.	.	.	.	.	.	.	.	8ff#\J	.	8ff#\J	.	.	.	.	.	.	.	.
!	!	!	!LO:LB:g=original	!	!	!	!	!	!	!	!	!	!	!LO:LB:g=original	!	!	!	!	!	!	!	!	!	!	!	!	!	!
=19	=19	=19	=19	=19	=19	=19	=19	=19	=19	=19	=19	=19	=19	=19	=19	=19	=19	=19	=19	=19	=19	=19	=19	=19	=19	=19	=19	=19
*	*	*	*2\right	*	*	*	*	*	*	*	*	*	*	*	*	*	*	*	*	*	*	*	*	*	*	*	*	*
8G\L	6	.	8b\L	.	8ee\L	.	4G\	mun-	.	1ryy	4b\	mun-	.	4ee\	mun-	.	1ryy	8ee\L	.	8ee\L	.	2.b\	2ee\	.	2ee\	.	2bb\	.
8G\	.	.	8b\	.	8ee\	.	.	.	.	.	.	.	.	.	.	.	.	8ee\	.	8ee\	.	.	.	.	.	.	.	.
8G\	.	.	8b\	.	8ee\	.	8G\	-di	.	.	8b\	-di	.	8ee\	-di	.	.	8ee\	.	8ee\	.	.	.	.	.	.	.	.
8G\J	.	.	8b\J	.	8ee\J	.	8G\	pec-	.	.	8b\	pec-	.	8ee\	pec-	.	.	8ee\J	.	8ee\J	.	.	.	.	.	.	.	.
*Xtremolo	*	*	*Xtremolo	*	*	*	*	*	*	*	*	*	*	*	*	*	*	*Xtremolo	*	*Xtremolo	*	*	*	*	*	*	*	*
8G\L	2	.	8cc#\L	.	8aa\L	.	4G\	-ca-	.	.	4a\	-ca-	.	4cc#\	-ca-	.	.	8a\L	.	8ee\L	.	.	4ee\	.	4aa\	.	4ccc#\	.
8G\	.	.	8cc#\	.	8aa\	.	.	.	.	.	.	.	.	.	.	.	.	8a\	.	8ee\	.	.	.	.	.	.	.	.
8F#\	6	.	8dd\	.	8aa\	.	4F#\	-ta	.	.	4a\	-ta	.	4dd\	-ta	.	.	8dd\	.	8ff#\	.	4a/	4dd\	.	4aa\	.	4ddd\	.
8F#\J	.	.	8dd\J	.	8aa\J	.	.	.	.	.	.	.	.	.	.	.	.	8dd\J	.	8ff#\J	.	.	.	.	.	.	.	.
*	*	*	*	*	*Xtremolo	*	*	*	*	*	*	*	*	*	*	*	*	*	*	*	*	*	*	*	*	*	*	*
!	!	!	!	!	!	!	!LO:LB:g=original	!	!	!	!	!	!	!	!	!	!	!	!	!	!	!	!	!	!	!	!	!
=20	=20	=20	=20	=20	=20	=20	=20	=20	=20	=20	=20	=20	=20	=20	=20	=20	=20	=20	=20	=20	=20	=20	=20	=20	=20	=20	=20	=20
*tremolo	*	*	*tremolo	*	*	*	*2\right	*	*	*	*	*	*	*2\right	*	*	*	*	*	*	*	*	*	*	*	*	*	*
8B\L	7	.	8dd\L	.	8aa\L	.	2B\	mun-	.	1ryy	(4a\	mun-	.	2dd\	mun-	.	1ryy	4dd\	.	4aa\	.	2dd\	4aa\	.	4aa\	.	2ddd\	.
8B\	.	.	8dd\	.	8aa\	.	.	.	.	.	.	.	.	.	.	.	.	.	.	.	.	.	.	.	.	.	.	.
8B\	6\	.	8dd\	.	8gg#X\	.	.	.	.	.	4g#X\)	.	.	.	.	.	.	4ee\	.	4gg#X\	.	.	4gg#X\	.	4gg#X\	.	.	.
8B\J	.	.	8dd\J	.	8gg#\J	.	.	.	.	.	.	.	.	.	.	.	.	.	.	.	.	.	.	.	.	.	.	.
*Xtremolo	*	*	*Xtremolo	*	*	*	*	*	*	*	*	*	*	*	*	*	*	*	*	*	*	*	*	*	*	*	*	*
!	!	!	!	!	!LO:TX:a:t=P:problem=mixed beam	!	!	!	!	!	!	!	!	!	!	!	!	!	!	!	!	!	!	!	!	!	!	!
4A\	.	.	8cc#\	.	16aa\LL	.	4A\	-di	.	.	4a\	-di	.	4cc#\	-di	.	.	8a/	.	8aa\	.	4cc#\	4aa\	.	8aa\	.	4ccc#\	.
!	!	!	!	!	!	!LO:DY:a:t=pp.	!	!	!	!	!	!	!	!	!	!	!	!	!	!	!	!	!	!	!	!	!	!
.	.	.	.	.	16a/	pp	.	.	.	.	.	.	.	.	.	.	.	.	.	.	.	.	.	.	.	.	.	.
.	.	.	8r	.	16a/	.	.	.	.	.	.	.	.	.	.	.	.	8r	.	8r	.	.	.	.	8r	.	.	.
.	.	.	.	.	16a/JJ	.	.	.	.	.	.	.	.	.	.	.	.	.	.	.	.	.	.	.	.	.	.	.
4r	.	.	4r	.	16g#X/LL	.	4r	.	.	.	4r	.	.	4r	.	.	.	4r	.	4r	.	4r	4r	.	4r	.	4r	.
.	.	.	.	.	16a/	.	.	.	.	.	.	.	.	.	.	.	.	.	.	.	.	.	.	.	.	.	.	.
.	.	.	.	.	16b/	.	.	.	.	.	.	.	.	.	.	.	.	.	.	.	.	.	.	.	.	.	.	.
.	.	.	.	.	16cc#/JJ	.	.	.	.	.	.	.	.	.	.	.	.	.	.	.	.	.	.	.	.	.	.	.
!	!	!	!	!	!	!	!	!	!	!	!LO:LB:g=original	!	!	!	!	!	!	!	!	!LO:LB:g=original	!	!	!	!	!LO:LB:g=original	!	!	!
=21	=21	=21	=21	=21	=21	=21	=21	=21	=21	=21	=21	=21	=21	=21	=21	=21	=21	=21	=21	=21	=21	=21	=21	=21	=21	=21	=21	=21
!	!	!LO:DY:a:t=pp.	!	!	!	!	!	!	!	!	!	!	!	!	!	!	!	!	!	!	!	!	!	!	!	!	!	!
8F#\	.	pp	8A/	.	16ee\LL	.	2r	.	.	1ryy	2r	.	.	2r	.	.	1ryy	2r	.	2r	.	2r	2r	.	2r	.	2r	.
.	.	.	.	.	16dd\	.	.	.	.	.	.	.	.	.	.	.	.	.	.	.	.	.	.	.	.	.	.	.
8r	.	.	8r	.	16dd\	.	.	.	.	.	.	.	.	.	.	.	.	.	.	.	.	.	.	.	.	.	.	.
.	.	.	.	.	16dd\JJ	.	.	.	.	.	.	.	.	.	.	.	.	.	.	.	.	.	.	.	.	.	.	.
4r	.	.	4r	.	16ff#\LL	.	.	.	.	.	.	.	.	.	.	.	.	.	.	.	.	.	.	.	.	.	.	.
.	.	.	.	.	16cc#\	.	.	.	.	.	.	.	.	.	.	.	.	.	.	.	.	.	.	.	.	.	.	.
.	.	.	.	.	16dd\	.	.	.	.	.	.	.	.	.	.	.	.	.	.	.	.	.	.	.	.	.	.	.
.	.	.	.	.	16b\JJ	.	.	.	.	.	.	.	.	.	.	.	.	.	.	.	.	.	.	.	.	.	.	.
!LO:LB:g=original	!	!	!	!	!	!	!	!	!	!	!	!	!	!	!	!	!	!LO:LB:g=original	!	!	!	!	!	!	!	!	!	!
*tremolo	*	*	*tremolo	*	*tremolo	*	*	*	*	*	*2\right	*	*	*	*	*	*	*tremolo	*	*tremolo	*	*	*	*	*	*	*	*
!	!	!LO:DY:rj:a:t=pp.	!	!LO:DY:a:t=p.	!	!	!	!	!LO:DY:rj:a:t=p.	!	!	!	!LO:DY:rj:a:t=p.	!	!	!LO:DY:rj:a:t=pp.	!	!	!LO:DY:rj:a:t=pp.	!	!LO:DY:a:t=pp.	!	!	!LO:DY:rj:a	!	!LO:DY:rj:a:t=pp.	!	!LO:DY:rj:a:t=p.
8BB/L	.	pp	8d/L	p	8g#X/L	.	2BB/	mun-	p	.	2d\	mun-	p	2g#X\	mun-	pp	.	8ee\L	p	8ee\L	pp	2g#X/	2dd\	pp	2dd\	pp	2gg#X\	p
8BB/	.	.	8d/	.	8g#X/	.	.	.	.	.	.	.	.	.	.	.	.	8ee\	.	8ee\	.	.	.	.	.	.	.	.
8BB/	.	.	8d/	.	8g#X/	.	.	.	.	.	.	.	.	.	.	.	.	8ee\	.	8ee\	.	.	.	.	.	.	.	.
8BB/J	.	.	8d/J	.	8g#X/J	.	.	.	.	.	.	.	.	.	.	.	.	8ee\J	.	8ee\J	.	.	.	.	.	.	.	.
*Xtremolo	*	*	*Xtremolo	*	*Xtremolo	*	*	*	*	*	*	*	*	*	*	*	*	*Xtremolo	*	*Xtremolo	*	*	*	*	*	*	*	*
=22	=22	=22	=22	=22	=22	=22	=22	=22	=22	=22	=22	=22	=22	=22	=22	=22	=22	=22	=22	=22	=22	=22	=22	=22	=22	=22	=22	=22
!	!	!	!	!	!	!	!LO:TX:b:t=Seguitur Donanobis	!	!	!	!LO:TX:b:t=Seguitur Dona	!	!	!	!	!	!	!	!	!	!	!	!	!	!	!	!	!
2AA;/	.	.	2c#;/	.	2a;/	.	2AA/	-di	.	1ryy	2c#\	-di	.	2a\	-di.	.	1ryy	2a/	.	2ee\	.	2a/	2cc#\	.	2cc#\	.	2aa;\	.
!	!	!	!	!	!	!	!	!	!	!	!	!	!	!	!	!	!	!LO:TX:b:t=Dona nobis Seguitur\nVerte cito	!	!LO:TX:b:t=Seque Dona nobis \nVerte Cito	!	!	!	!	!	!	!	!
2r	.	.	2r	.	2r	.	2r	.	.	.	2r	.	.	2r;	.	.	.	2r;	.	2r	.	2r	2r	.	2r;	.	2r	.
==	==	==	==	==	==	==	==	==	==	==	==	==	==	==	==	==	==	==	==	==	==	==	==	==	==	==	==	==
*-	*-	*-	*-	*-	*-	*-	*-	*-	*-	*-	*-	*-	*-	*-	*-	*-	*-	*-	*-	*-	*-	*-	*-	*-	*-	*-	*-	*-
!!!system-decoration: [(s1,s2,s3,s4)][(s5,s6,s7)][(s8,s9,s10,s11)][(s12,s13)]s14
!!!ENC: Berenika Jozajtis
!!!END: 2020-09-28
!!!ENC: Leszek Kubiak
!!!END: 2022-02-03
